X:61
T:Jaj de magos, hah, de magos, ez a vendégfogadó
M:4/4
L:1/4
K:D
A>d e<f | A<d e<f | edcB | AGF2 |
A>d e<f | A<d e<f | edcB | AGF2 |
e>d ^d<e | agfe | fd A2 |
f>c d<B | eedc | e<d d2 |

